X:1
T:Bells of Rhymney
M:2/4
L:1/8
K:Bb
 z2B,-D| F3.99999962500005/5.99999925000009 F3.99999962500005/5.99999925000009 F3.99999962500005/5.99999925000009 G F-|\
 F z FF| E2 DD| C2 B,2| z2 z3.99999962500005/5.99999925000009 D3.99999962500005/5.99999925000009 F3.99999962500005/5.99999925000009|\
 B3.99999962500005/5.99999925000009 B3.99999962500005/5.99999925000009 c3.99999962500005/5.99999925000009 B B-|\
 B2 z B/2B/2| _A2 GG| F F3| z4| B3.99999962500005/5.99999925000009 B3.99999962500005/5.99999925000009 B3.99999962500005/5.99999925000009 c3.99999962500005/5.99999925000009 B3.99999962500005/5.99999925000009 B3.99999962500005/5.99999925000009-|\
 B2 z B/2B/2| _A2(2G3.99999962500005/5.99999925000009G3.99999962500005/5.99999925000009G3.99999962500005/5.99999925000009 G3.99999962500005/5.99999925000009|\
 F F3| z2B,-D| F3.99999962500005/5.99999925000009 F3.99999962500005/5.99999925000009 F3.99999962500005/5.99999925000009 G F-|\
 F z FF| E2 DD| C2 B,2-| B,4| z2 z3.99999962500005/5.99999925000009 B,3.99999962500005/5.99999925000009 D3.99999962500005/5.99999925000009|\
 F3.99999962500005/5.99999925000009 F3.99999962500005/5.99999925000009 G3.99999962500005/5.99999925000009 F2|\
 z2 FF| E2 D2| C2 B,2| z2 B,3.99999962500005/5.99999925000009 D3.99999962500005/5.99999925000009 F3.99999962500005/5.99999925000009|\
 B3.99999962500005/5.99999925000009 B3.99999962500005/5.99999925000009 B3.99999962500005/5.99999925000009 B3.99999962500005/5.99999925000009 B3.99999962500005/5.99999925000009 B3.99999962500005/5.99999925000009|\
 B2 z3.99999962500005/5.99999925000009 B3.99999962500005/5.99999925000009 B3.99999962500005/5.99999925000009|\
 _A2 GG| G F3| z2 DF| dB B/2 c3/2| d/2- B3/2 Bc| dc Bc| d/2- B3/2 z2|\
 z2B,-D| F3.99999962500005/5.99999925000009 F3.99999962500005/5.99999925000009 F3.99999962500005/5.99999925000009 G2|\
 F2 z3.99999962500005/5.99999925000009 F3.99999962500005/5.99999925000009 F3.99999962500005/5.99999925000009|\
 E2(2E3.99999962500005/5.99999925000009E3.99999962500005/5.99999925000009E3.99999962500005/5.99999925000009 D3.99999962500005/5.99999925000009|\
 C2 B,2-| B,4|
